brandFactory_export/2.Regular/Disco duro_2Regular.svg

<?xml version="1.0" encoding="UTF-8"?>
<svg width="24px" height="24px" viewBox="0 0 24 24" version="1.1" xmlns="http://www.w3.org/2000/svg" xmlns:xlink="http://www.w3.org/1999/xlink">
    <title>2.Regular/Disco duro_2Regular</title>
    <g id="Symbols" stroke="none" stroke-width="1" fill="none" fill-rule="evenodd">
        <g id="2.Regular/Disco-duro_2Regular" fill="#5CB615" fill-rule="nonzero">
            <path d="M21.9226891,22.1310924 C22.0571429,22.1310924 22.1647059,22.0201681 22.1647059,21.8857143 L22.1647059,16.2655462 L22.1546218,16.1983193 C22.1445378,16.0739496 22.0470588,15.9731092 21.9193277,15.9731092 L1.76134454,15.9731092 C1.62689076,15.9731092 1.51932773,16.0840336 1.51932773,16.2184874 L1.51932773,21.8857143 C1.51932773,22.0201681 1.6302521,22.1310924 1.76134454,22.1310924 L21.9226891,22.1310924 L21.9226891,22.1310924 Z M3.44537815,1.73781513 L1.74789916,14.4840336 C1.75462185,14.4840336 1.75798319,14.4806723 1.76470588,14.4806723 L21.9226891,14.4806723 C21.9294118,14.4806723 21.9361345,14.4840336 21.9428571,14.4840336 L20.3563025,1.89243697 C20.3193277,1.6907563 20.1647059,1.51260504 20,1.51260504 L3.6907563,1.49572388 C3.55630252,1.49243697 3.44537815,1.60336134 3.44537815,1.73781513 Z M23.6504202,16.1478992 C23.6537815,16.1747899 23.6571429,16.194958 23.6571429,16.2218487 L23.6571429,21.8890756 C23.6571429,22.8470588 22.8806723,23.6268908 21.9226891,23.6268908 L1.76470588,23.6268908 C0.810084034,23.6268908 0.0302521008,22.8470588 0.0302521008,21.8890756 L0.0302521008,16.2218487 C0.0302521008,16.1848739 0.0403361345,16.1478992 0.043697479,16.1109244 C0.043697479,16.087395 0.0369747899,16.0672269 0.0403361345,16.0470588 L1.96302521,1.64033613 C1.95630252,0.783193277 2.73613445,0 3.6907563,0 L20,0.0168067227 C20.897479,0.0168067227 21.6504202,0.692436975 21.8285714,1.6605042 L23.6168067,15.8521008 C23.6268908,15.892437 23.6268908,15.9361345 23.6336134,15.9798319 L23.6504202,16.1243697 C23.6537815,16.1344538 23.6504202,16.1378151 23.6504202,16.1478992 Z M11.8453782,7.1394958 C10.7731092,7.1394958 10.7731092,7.58655462 10.7731092,7.77815126 C10.7731092,7.9697479 10.7731092,8.41344538 11.8453782,8.41344538 C12.9176471,8.41344538 12.9176471,7.9697479 12.9176471,7.77815126 C12.9176471,7.58655462 12.9176471,7.1394958 11.8453782,7.1394958 Z M11.8453782,9.40840336 C9.98319328,9.40840336 9.78151261,8.26890756 9.78151261,7.77815126 C9.78151261,7.28739496 9.98319328,6.14453782 11.8453782,6.14453782 C13.7109244,6.14453782 13.912605,7.28739496 13.912605,7.77815126 C13.9092437,8.26890756 13.707563,9.40840336 11.8453782,9.40840336 Z M19.1092437,20.0504202 C19.7142857,20.0504202 19.9529412,19.8151261 19.9529412,19.2033613 C19.9529412,18.594958 19.7142857,18.3596639 19.1092437,18.3596639 C18.5042017,18.3596639 18.2655462,18.5983193 18.2655462,19.2033613 C18.2655462,19.8151261 18.5008403,20.0504202 19.1092437,20.0504202 Z M19.1092437,17.3647059 C20.2588235,17.3647059 20.9445378,18.0537815 20.9445378,19.2033613 C20.9445378,20.3563025 20.2588235,21.0453782 19.1092437,21.0453782 C17.9596639,21.0453782 17.2739373,20.3563025 17.2739373,19.2033613 C17.2705882,18.0537815 17.9596639,17.3647059 19.1092437,17.3647059 Z M4.88403361,3.31764706 C4.31596639,3.31764706 3.98655462,3.1092437 3.98655462,2.66890756 C3.98655462,2.22521008 4.31596639,2.02016807 4.88403361,2.02016807 C5.4487395,2.02016807 5.78151261,2.22857143 5.78151261,2.66890756 C5.78151261,3.11260504 5.45210084,3.31764706 4.88403361,3.31764706 Z M18.3495798,3.31764706 C17.7815126,3.31764706 17.4521008,3.1092437 17.4521008,2.66890756 C17.4521008,2.22521008 17.7815126,2.02016807 18.3495798,2.02016807 C18.9142857,2.02016807 19.2470588,2.22857143 19.2470588,2.66890756 C19.2470588,3.11260504 18.9142857,3.31764706 18.3495798,3.31764706 Z M20.2722689,13.9260504 C19.7042017,13.9260504 19.3747899,13.7176471 19.3747899,13.2773109 C19.3747899,12.8336134 19.7042017,12.6285714 20.2722689,12.6285714 C20.8403361,12.6285714 21.1697479,12.8336134 21.1697479,13.2773109 C21.1697479,13.7210084 20.8403361,13.9260504 20.2722689,13.9260504 Z M3.70756303,12.0773109 C3.54621849,12.2252101 3.45882353,12.3663866 3.46554622,12.4672269 C3.47563025,12.5781513 3.60672269,12.7260504 3.81512605,12.8638655 C4.17142857,13.0957983 4.71260504,13.2705882 5.25042017,12.7798319 C6.45378151,11.6773109 7.85210084,9.95294118 7.77142857,9.51260504 C7.75798319,9.5092437 7.74117647,9.5092437 7.72436975,9.5092437 C7.13277311,9.5092437 4.66554622,11.2 3.70756303,12.0773109 L3.70756303,12.0773109 Z M6.42689076,7.77815126 C6.42689076,8.19495798 6.4907563,8.57478992 6.58823529,8.9210084 C7.29411765,8.60168067 7.94285714,8.46386555 8.34957983,8.72941176 C8.59159664,8.88739496 8.7394958,9.13613445 8.76302521,9.43529412 C8.79327731,9.82857143 8.57815126,10.3260504 8.25210084,10.8369748 L8.27563025,10.8470588 C9.15966387,11.2705882 10.3630252,11.4857143 11.8420168,11.4857143 C17.2605042,11.4857143 17.2605042,8.69243697 17.2605042,7.77815126 C17.2605042,6.8605042 17.2605042,4.06386555 11.8420168,4.06386555 C6.42689076,4.06722689 6.42689076,6.8605042 6.42689076,7.77815126 L6.42689076,7.77815126 Z M3.27731092,13.7008403 C2.66218487,13.3008403 2.50420168,12.8537815 2.47731092,12.5512605 C2.45378151,12.2554622 2.53109244,11.8084034 3.03865546,11.3411765 C3.05882353,11.3243697 4.07731092,10.4336134 5.25378151,9.66722689 C5.25378151,9.66386555 5.25042017,9.66386555 5.25042017,9.6605042 C5.04537815,9.09579832 4.93781513,8.4605042 4.93781513,7.77478992 C4.93781513,5.82857143 5.83529412,2.56806723 11.8420168,2.56806723 C17.8554622,2.56806723 18.7529412,5.82857143 18.7529412,7.77478992 C18.7529412,9.71764706 17.8554622,12.9781513 11.8420168,12.9781513 C10.1378151,12.9781513 8.71932773,12.7159664 7.6302521,12.1915966 L7.45210084,12.1042017 C7.41176471,12.0840336 7.38823529,12.0504202 7.35462185,12.0235294 C6.66890756,12.8201681 5.97647059,13.4588235 5.91932773,13.5092437 C5.50252101,13.892437 5.01512605,14.0874596 4.51092437,14.0874596 C4.10084034,14.0907563 3.68067227,13.9630252 3.27731092,13.7008403 Z" id="Disco-duro_2Regular"></path>
        </g>
    </g>
</svg>

<svg width="24" height="24" viewBox="0 0 24 24" xmlns="http://www.w3.org/2000/svg"><path d="M21.923 22.131c.134 0 .242-.11.242-.245v-5.62l-.01-.068a.239.239 0 00-.236-.225H1.761a.244.244 0 00-.242.245v5.668c0 .134.111.245.242.245h20.162zM3.445 1.738L1.748 14.484c.007 0 .01-.003.017-.003h20.158c.006 0 .013.003.02.003L20.356 1.892c-.037-.201-.191-.38-.356-.38L3.69 1.497a.242.242 0 00-.245.242zm20.205 14.41c.004.027.007.047.007.074v5.667c0 .958-.776 1.738-1.734 1.738H1.765A1.74 1.74 0 01.03 21.889v-5.667c0-.037.01-.074.014-.111 0-.024-.007-.044-.004-.064L1.963 1.64C1.956.783 2.736 0 3.691 0L20 .017c.897 0 1.65.675 1.829 1.644l1.788 14.191c.01.04.01.084.017.128l.016.144c.004.01 0 .014 0 .024zM11.845 7.139c-1.072 0-1.072.448-1.072.64 0 .19 0 .634 1.072.634 1.073 0 1.073-.443 1.073-.635 0-.191 0-.639-1.073-.639zm0 2.27c-1.862 0-2.063-1.14-2.063-1.63 0-.492.201-1.634 2.063-1.634 1.866 0 2.068 1.142 2.068 1.633-.004.49-.205 1.63-2.068 1.63zM19.11 20.05c.605 0 .844-.235.844-.847 0-.608-.239-.843-.844-.843s-.843.238-.843.843c0 .612.235.847.843.847zm0-2.685c1.15 0 1.836.689 1.836 1.838 0 1.153-.686 1.842-1.836 1.842s-1.835-.689-1.835-1.842c-.003-1.15.686-1.838 1.835-1.838zM4.884 3.318c-.568 0-.897-.209-.897-.65 0-.443.329-.648.897-.648.565 0 .898.209.898.649 0 .444-.33.649-.898.649zm13.466 0c-.568 0-.898-.209-.898-.65 0-.443.33-.648.898-.648.564 0 .897.209.897.649 0 .444-.333.649-.897.649zm1.922 10.608c-.568 0-.897-.208-.897-.649 0-.443.33-.648.897-.648.568 0 .898.205.898.648 0 .444-.33.65-.898.65zM3.708 12.077c-.162.148-.25.29-.242.39.01.111.14.26.35.397.355.232.897.407 1.434-.084 1.204-1.103 2.602-2.827 2.521-3.267-.013-.004-.03-.004-.047-.004-.591 0-3.058 1.691-4.016 2.568zm2.719-4.299c0 .417.064.797.161 1.143.706-.32 1.355-.457 1.762-.192.242.158.39.407.413.706.03.394-.185.891-.51 1.402l.023.01c.884.424 2.087.639 3.566.639 5.419 0 5.419-2.794 5.419-3.708 0-.917 0-3.714-5.419-3.714-5.415.003-5.415 2.797-5.415 3.714zm-3.15 5.923c-.615-.4-.773-.847-.8-1.15-.023-.296.054-.743.562-1.21.02-.017 1.038-.907 2.215-1.674 0-.003-.004-.003-.004-.006a5.52 5.52 0 01-.312-1.886c0-1.946.897-5.207 6.904-5.207 6.013 0 6.91 3.26 6.91 5.207 0 1.943-.897 5.203-6.91 5.203-1.704 0-3.123-.262-4.212-.786l-.178-.088c-.04-.02-.064-.054-.097-.08a18.763 18.763 0 01-1.436 1.485c-.416.383-.904.578-1.408.578-.41.004-.83-.124-1.234-.386z" fill="#5CB615" fill-rule="nonzero"/></svg>
